packages/ffe-icons/icons/300/filled/md/comment.svg

<svg xmlns="http://www.w3.org/2000/svg" height="24" viewBox="0 -960 960 960" width="24"><path d="M280-410.001h400q12.75 0 21.375-8.628 8.624-8.629 8.624-21.384 0-12.756-8.624-21.371-8.625-8.615-21.375-8.615H280q-12.75 0-21.374 8.628-8.625 8.629-8.625 21.384 0 12.756 8.625 21.371 8.624 8.615 21.374 8.615Zm0-120h400q12.75 0 21.375-8.628 8.624-8.629 8.624-21.384 0-12.756-8.624-21.371-8.625-8.615-21.375-8.615H280q-12.75 0-21.374 8.628-8.625 8.629-8.625 21.384 0 12.756 8.625 21.371 8.624 8.615 21.374 8.615Zm0-120h400q12.75 0 21.375-8.628 8.624-8.629 8.624-21.384 0-12.756-8.624-21.371-8.625-8.615-21.375-8.615H280q-12.75 0-21.374 8.628-8.625 8.629-8.625 21.384 0 12.756 8.625 21.371 8.624 8.615 21.374 8.615Zm-107.691 390q-30.308 0-51.308-21t-21-51.308v-455.382q0-30.308 21-51.308t51.308-21h615.382q30.308 0 51.308 21t21 51.308v581.843q0 24.187-22.193 33.593-22.192 9.406-39.269-7.67l-80.076-80.076H172.309Z"/></svg>

<svg xmlns="http://www.w3.org/2000/svg" height="24" viewBox="0 -960 960 960" width="24"><path d="M280-410.001h400q12.769 0 21.384-8.615T709.999-440q0-12.769-8.615-21.384T680-469.999H280q-12.769 0-21.384 8.615T250.001-440q0 12.769 8.615 21.384T280-410.001Zm0-120h400q12.769 0 21.384-8.615T709.999-560q0-12.769-8.615-21.384T680-589.999H280q-12.769 0-21.384 8.615T250.001-560q0 12.769 8.615 21.384T280-530.001Zm0-120h400q12.769 0 21.384-8.615T709.999-680q0-12.769-8.615-21.384T680-709.999H280q-12.769 0-21.384 8.615T250.001-680q0 12.769 8.615 21.384T280-650.001Zm-107.691 390q-30.308 0-51.308-21t-21-51.308v-455.382q0-30.308 21-51.308t51.308-21h615.382q30.308 0 51.308 21t21 51.308v581.843q0 24.307-22.193 33.653-22.192 9.346-39.269-7.73l-80.076-80.076H172.309ZM743.999-320 800-264.615v-523.076q0-4.616-3.846-8.463-3.847-3.846-8.463-3.846H172.309q-4.616 0-8.463 3.846-3.846 3.847-3.846 8.463v455.382q0 4.616 3.846 8.463 3.847 3.846 8.463 3.846h571.69ZM160-320V-800v480Z"/></svg>
